X:1
T:Cry of Faith, 10.10.10.10
T:Cry of Faith, 10.10.10.10
T:Henry John Gauntlett, 1875
T:Public Domain Courtesy of the Cyber Hymnal™
C:Henry John Gauntlett, 1875
Z:Public Domain
Z:Courtesy of the Cyber Hymnal™
%%score ( 1 2 ) ( 3 4 )
L:1/8
Q:1/4=115
M:none
K:F
V:1 treble 
V:2 treble 
V:3 bass 
V:4 bass 
V:1
 [Fc]4 | [Fc]2 [FA]2 [EA]2 [EG]2 | F4 (F2 E2) | ([DF]2 [EG]2 [FA]2) [FB]2 | [EG]4 [Ec]4 | %5
 [Fc]2 [FA]2 [FB]2 G2 | (A2 B2 c2) F2 | [FA]4 [EG]4 | F6 G2 | G4 G4 | G6 [DG]2 | %11
 [E^c]2 [Dd]2 [Ge]2 [EG]2 | [DF]6 [=B,F]2 | [CF]2 [CE]2 [EA]2 [EG]2 | c6 [FB]2 | [FG]4 [EG]4 | %16
 F4 |] %17
V:2
 x4 | x8 | F4 ^C4 | x8 | x8 | x6 G2 | F6 F2 | x8 | F6 G2 | (F2 E2) (F2 D2) | (G2 F2 E2) x2 | x8 | %12
 x8 | x8 | (F2 E2 F2) x2 | x8 | F4 |] %17
V:3
 [F,A,]4 | [F,A,]2 [F,C]2 [C,C]2 [C,B,]2 | [D,A,]4 [A,,A,]4 | A,2 B,2 A,2 [B,,D]2 | %4
 [C,C]4 [B,,G,]4 | [A,,F,]2 [C,F,]2 [D,F,]2 [E,C]2 | [F,C]2 F,4 [B,,D]2 | [C,C]4 [C,B,]4 | %8
 [F,A,]6 [E,C]2 | [D,C]4 [G,C]2 [F,=B,]2 | ([E,C]2 [D,F,]2 [C,F,]2) [B,,G,]2 | %11
 [A,,G,]2 [D,F,]2 [D,B,]2 [^C,A,]2 | [D,A,]6 [D,G,]2 | [C,A,]2 [C,G,]2 [B,,C]2 [B,,C]2 | %14
 ([A,,C]2 [G,,B,]2 [A,,C]2) [B,,D]2 | (G,2 A,2) [C,B,]4 | [F,,A,]4 |] %17
V:4
 x4 | x8 | x8 | D,6 x2 | x8 | x8 | x2 (D,2 A,,2) x2 | x8 | x8 | x8 | x8 | x8 | x8 | x8 | x8 | %15
 C,4 x4 | x4 |] %17

